X:621
T:Balkan Hills, The
B:Gatherer's Musical Museum
Z:Nigel Gatherer
M:2/4
L:1/16
K:D
ag | fAfe d2A2 | BGdB A2de | f2Aa gfed | f2e2 e2
ag | fAfe d2A2 | BGdB A2de | faga gecA | d4   d2 :|
fg | adfa f2ed | BGdB A2fg | adfa gfed | f2e2 e2
fg | adfa f2ed | BGdB A2de | f2Aa gecA | d4   d2 :|
AB | d3e  f2ed | BGdB A2de | f2Aa gfed | f2e2 e2
AB | d3e  f2ed | BGdB A2de | faga gecA | d4   d2 :|
fg | adfa Adfa | fdfa f2ed | adfa gfed | f2e2 e2
fg | adfa Adfa | BGdB A2de | f2Aa gecA | d4   d2 :|]
